X: 9272
T: Dance Above The Rainbow
R: jig
M: 6/8
K: Emajor
M:4/4
|:E2 (3EEE GBeB|cBGB (3BBB BG|(3AAA BA cABA|(3AAA cA Bcde|
E2 (3EEE GBeB|cBGB ~B3 B|cBce dcBA|1 GBFB E2 GF:|2 Bedf e3 f||
|:g2 (3ggg g2 fe|fgfe d2 cd|e2 (3eee e2 dc|BcBG F2 ef|
g2 (3ggg g2 fe|fgfe d3 d|cBce dcBA|1 GBFB E2 ef:|2 Bedf ecBG||

